X:1
T:Tell the Blessèd News
T:Hubert Platt Main
T:Tell the Blessèd News
T:Public Domain
T:Public Domain
C:Hubert Platt Main
Z:Public Domain
%%score ( 1 2 ) ( 3 4 )
L:1/8
M:4/4
K:Ab
V:1 treble 
V:2 treble 
V:3 bass 
V:4 bass 
V:1
 [Ec]>[DB] | [CA]2 [CA]2 (AB) [Ec]2 | (E2 =D2 E2) [Ec]>[E=d] | ([Ae]2 [Ec]4) [EA]>[Ec] | %4
w: 1.~I’m a|sin- ner, saved * by|Praise * * the Lord!|the * Lord! I|
w: 2.~I have|found a pre- * cious|Praise * * the Lord!|the * Lord! He|
w: 3.~Je- sus|helps me when * I|Praise * * the Lord!|the * Lord! Ev-|
w: 4.~He has|ma- ny bless- * ings|Praise * * the Lord!|the * Lord! I|
 [EB]6 [=Ec]>[EB] | [FA]2 [FA]2 (AB) [Ec]2 | [EB]6 [Ee]>[Ed] | ([Ec]2 [CA]4) [DB]>[Dc] | %8
w: shall see my|Sav- ior’s face, * Praise|Lord! Praise the|Lord! * Tell the|
w: will keep me|to the end, * Praise|Lord! Praise the|Lord! * Je- sus|
w: er hears me|when I call, * Praise|Lord! Praise the|Lord! * He doth|
w: shall have a|home in Heav’n, * Praise|Lord! Praise the|Lord! * If I|
 [CA]6 [CE]>[CE] | [CA]2 [EA]2 [DF]2 [DE]2 | [EA]6 [Ed]>[Ec] | [FB]2 [FA]2 [EG]2 [=DA]2 | %12
w: bless- èd news|a- round Un- to|earth’s re- mot-|est bound, I was|
w: is so dear|to me, Such a|lov- ing friend|is He, And will|
w: all my sor-|rows share And will|all my bur-|dens bear, Cheers me|
w: al- ways do|my best, I shall|have a glo-|rious rest, Live for-|
 (E2 =D2 E2) [Ee]>[E=d] | [Ec]2 [Ec]2 (cB) [EA]2 | ([DF]2 [Fd]4) [Fc]>[FB] | %15
w: lost, * * but now|found, Praise the * Lord!|the * Lord! *|
w: ev- * * er faith-|be, Praise the * Lord!|the * Lord! *|
w: when * * I’m in|pair, Praise the * Lord!|the * Lord! *|
w: ev- * * er with|blest, Praise the * Lord!|the * Lord! *|
 ([EA]2 [Ac]4) [GB]>[EB] | [EA]6 |] %17
w: ||
w: ||
w: ||
w: ||
V:2
 x2 | x4 E2 x2 | B6 x2 | x8 | x8 | x4 E2 x2 | x8 | x8 | x8 | x8 | x8 | x8 | B6 x2 | x4 E2 x2 | x8 | %15
w: |grace,|Praise|||the|||||||I’m|Praise||
w: |friend,|Praise|||the|||||||ful|Praise||
w: |fall,|Praise|||the|||||||des-|Praise||
w: |giv’n,|Praise|||the|||||||the|Praise||
 x8 | x6 |] %17
w: ||
w: ||
w: ||
w: ||
V:3
 [A,,A,]>[A,,A,] | [A,,A,]2 [A,,A,]2 ([C,A,][B,,G,]) [A,,A,]2 | %2
 ([E,G,]2 [F,A,]2 [G,B,]2) A,>[A,B,] | (C2 A,4) [A,C]>A, | [E,G,]6 [C,G,]>[C,C] | %5
 [F,C]2 [D,D]2 ([C,A,][B,,G,]) [A,,A,]2 | [E,G,]6 [G,B,]>[G,B,] | (A,4 E,2) [E,G,]>[E,G,] | %8
 [A,,A,]6 [A,,A,]>[A,,A,] | [A,,E,]2 [C,A,]2 [D,A,]2 [E,G,]2 | %10
 ([C,A,]2 [B,,D]2 [A,,C]2) [B,,G,]>[C,A,] | [D,A,]2 [=D,B,]2 [E,B,]2 [F,B,]2 | %12
 ([G,B,]2 [F,A,]2 [E,G,]2) [G,B,]>[G,B,] | A,2 [A,,A,]2 ([A,,A,][B,,G,]) [C,A,]2 | %14
 [D,A,]6 [D,E]>[D,D] | (C2 E4) [E,D]>[E,D] | [A,,A,C]6 |] %17
V:4
 x2 | x8 | x6 A,3/2 x/ | A,6 A,/ x3/2 | x8 | x8 | x8 | A,6 x2 | x8 | x8 | x8 | x8 | x8 | A,2 x6 | %14
 x8 | E,6 x2 | x6 |] %17

